X: 2
T: Cragie-Burn Wood
O: Robert Millar coll. 1820 #36
M: 6/8
L: 1/8
R: Pipe Jig
P: Pipe Jig
S: Robert Millar music manuscript collection (1820, No. 36)
N: "Forfar Reg. and Piper to the Aberdeen Highland Society, 1820"
Z: AK/Fiddler's Companion
K: G
d/c/ |\
TB>AG ABd | Te>fg d<BG | TB>AG ABd | e3 g2d/c/ |
B>AG ABd | e>fg d<BG | Tg>fe d<BG | A3 e2 :|
|: d |\
e2f g>fg | a>gf f>ed | e2f g>fg | a3 e2d |
e2f g>fg | a>gf g<eg | B>AG ABd | e3 g2 :|
